X: 1
T: Radi le
T: ABA C1 D C2 DE C3 FGHIJKLML
O: Strand\vza, E. Thrace
Z: John Chambers <jc@trillian.mit.edu> (from a handwritten MS)
N: Presented by Iliana Bozhanova and Lyuben Dossev, 1998
W: O Radi, young man from Karyak, they've invited you to a Turkish wedding to sing for them.
W: To a Turkish wedding, Radi, to sing for them, and even to dance for them.
W: Dear old mother, I won't go, no, I'll never to to a turkish wedding, I'll never bow my head to Turks.
M: 139/16
L: 1/16
K: Dm
"A"|: "Dm"FA, ED FA, E2D  FG GA  | FA, E2D DE FG | FA, ED FA, E2D FG  GA | FA, E2D D2 D2 :|
"B"|: "Gm"GA  B2 "Dm"FG  F2_E D2-D=E | "C"FG  G2E "F"F2-FG | "(Dm)"AG  A2 GA F2_E FG- GA | "Cm"FG F2_E "Dm"D4 :|
%%sep 8 8 250
"C"|: "Gm"G2 G2 (GA) (FGE) "Dm"(F3_E) | "Dm"D2 (FGE) F4 | "Gm"G2 G2 (GA) (~F2E) "Dm"({F}G3F) | "Cm"(F_E) D3 "Dm"D4 :|
w: 1.Ra-di le,* mla-**de* ka-rya\vc-**ko, Ra-di le,* ka-*ni-* li* sa te
w:   na tur-ska* svat-**ba* je-ru\vc-**ka, Ra-di le,* da* im* po-*pe-e\vs.
w: 2.Na tur-ska* svat-**ba* ju-ru\vc-**ka, Ra-di le,* da* im* po-*pe-e\vs.
w:   Ra-di le,* da** im* po-pe-**e\vs i o-\vste* da* im* po-*ple\vs-i\vs.
w: 3.Ma-le le* sta-**ra* maj-\vci-**ce ne ho-dya,* ma-*le,* ne* ho-dya
w:   na tur-ska* svat-**ba* je-ru\vc-**ka, na tur-ci* gla-*va* ne* kla-nyam.
"D"|: "Dm"DC DE "C"FG G2E "Dm"F2- FG | "Dm"F_E D2=E "C"FG G2 | "Dm"DC DE "C"FG G2E "Dm"F2- FG | "Cm"F_E D3 "Dm"D4 :|
K:Dphr^F
"E"|: "D"FG FE Dz D2E F2- FE | D2 FGE F4 | FG FE Dz D2E F2- FE | "Cm"FG F2E "D"D4 :|
%%sep 8 8 250
K:Gm
"F"|: "Gm"G2- GA  Bc c2B cd- dc | cz c2d  c2 BA | G2  GA .B2 B2A c2- cd | B_A G3 G4 :|
%
K:Am
"G"|: "Am"A2- AB .c2 c2B cd- de | fe e2d- de cB | "Dm"cd d2 de cdB "Am"c2- cd | "Gm"c_B A3 "Am"A4 :|
K:Aphr^c
"H"|: "A"cd cB AG A2B c2- cB | AB cde c4 | cd cB AG A2B c2- cB | "Gm"cd c2B "A"A4 :|
K:Bm
"I"|: "Bm"B2- Bc de e2d ef f2 | fe e2f e2 dc | B2- Bc .d2 d2c de- ef |1 "Am"de d2=c "Bm"B4 :|2 "Am"d=c B3 "Bm"B4 ||
"J"|: "Bm"fg  f2 ed f2d "(Em)"e2 ef | "Bm"d=c B2^c d2- de | "Bm"fg f2 ed f2d "Em"e2- ef |1 "Am"d=c B3 "Bm"B4 :|2 "Am"d=c B3 "Bm"BAB^c ||
K:A_B^f^c
"K"|: "A"de dc "Gm"BA GAB "A"c2 cB | "A"ce dcB .c2 c2- | "A"ce dc "Gm"BA GAB "A"c2- cB |1 "Gm"cd dcB "A".A2A2 :|2 "Gm"cd c2B "A".A2A2 ||
%%sep 8 8 250
K:Am
"L"|: "Dm"cd d2 "Am"de cdB c2- c_B | A2 cdB c4  | "Dm"cd d2 "Am"de c2d cd- dc | "Gm"c_B A3 "Am"A2HA2 :|
"M"|: "Am"cE BA cE B2A cd  de  | cE B2A Bc de | cE BA cE B2A cd  de | cE B2A AE A2 :|
